X: 5
T: Christmas Is Coming v.1
P: piffero primo c0007
O: English traditional
%R: march
F: http://ancients.sudburymuster.org/mus/col/pdf/carolsF.pdf
Z: 2020 John Chambers <jc:trillian.mit.edu>
M: 3/4
L: 1/8
K: G
V: 1
V: 2
|\
g4 d3d | g2 g4 g2 | g2g2 f2e2 | d8 | g3G G2A2 | B2G2 B2d2 |
e4 d2c2 | B8 | B3c B2A2 | G2g2 d2B2 | c4 d2F2 | G8 |]


